src/icons/svg/suitcase.svg

<?xml version="1.0"?><svg xmlns="http://www.w3.org/2000/svg" width="40" height="40" viewBox="0 0 40 40"><path  d="m14.3 8.6h11.4v-2.9h-11.4v2.9z m-7.9 0v28.5h-1.4q-2.1 0-3.5-1.4t-1.5-3.6v-18.5q0-2.1 1.5-3.6t3.5-1.4h1.4z m25 0v28.5h-22.8v-28.5h2.8v-3.6q0-0.9 0.7-1.5t1.5-0.6h12.8q0.9 0 1.5 0.6t0.7 1.5v3.6h2.8z m8.6 5v18.5q0 2.1-1.5 3.6t-3.5 1.4h-1.4v-28.5h1.4q2.1 0 3.5 1.4t1.5 3.6z"></path></svg>

<svg xmlns="http://www.w3.org/2000/svg" width="40" height="40" viewBox="0 0 40 40"><path d="M14.3 8.6h11.4V5.7H14.3v2.9zm-7.9 0v28.5H5q-2.1 0-3.5-1.4T0 32.1V13.6q0-2.1 1.5-3.6T5 8.6h1.4zm25 0v28.5H8.6V8.6h2.8V5q0-.9.7-1.5t1.5-.6h12.8q.9 0 1.5.6t.7 1.5v3.6h2.8zm8.6 5v18.5q0 2.1-1.5 3.6T35 37.1h-1.4V8.6H35q2.1 0 3.5 1.4t1.5 3.6z"/></svg>
